www/assets/images/wpt-header-menubtn-close.svg

<svg fill="none" height="18" viewBox="0 0 18 18" width="18" xmlns="http://www.w3.org/2000/svg"><path d="m10.88 9.00002 5.7333-5.72c.2511-.25107.3921-.59159.3921-.94666s-.141-.6956-.3921-.94667-.5916-.392122-.9467-.392122c-.355 0-.6955.141052-.9466.392122l-5.72002 5.73333-5.72-5.73333c-.25107-.25107-.5916-.392122-.94667-.392122s-.69559.141052-.94666.392122c-.25108.25107-.392126.5916-.392126.94667s.141046.69559.392126.94666l5.73333 5.72-5.73333 5.71998c-.12497.124-.22417.2714-.29186.4339s-.102541.3368-.102541.5128.034851.3503.102541.5128c.06769.1624.16689.3099.29186.4339.12395.1249.27141.2241.43389.2918s.33676.1026.51277.1026c.17602 0 .35029-.0349.51277-.1026s.30995-.1669.4339-.2918l5.72-5.7334 5.72002 5.7334c.1239.1249.2714.2241.4339.2918s.3367.1026.5127.1026c.1761 0 .3503-.0349.5128-.1026s.31-.1669.4339-.2918c.125-.124.2242-.2715.2919-.4339.0677-.1625.1025-.3368.1025-.5128s-.0348-.3503-.1025-.5128-.1669-.3099-.2919-.4339z" fill="#5dbbe8"/></svg>

<svg width="18" height="18" viewBox="0 0 18 18" fill="none" xmlns="http://www.w3.org/2000/svg">
<path d="M10.88 9.00002L16.6133 3.28002C16.8644 3.02895 17.0054 2.68843 17.0054 2.33336C17.0054 1.97829 16.8644 1.63776 16.6133 1.38669C16.3622 1.13562 16.0217 0.994568 15.6666 0.994568C15.3116 0.994568 14.9711 1.13562 14.72 1.38669L8.99998 7.12002L3.27998 1.38669C3.02891 1.13562 2.68838 0.994568 2.33331 0.994568C1.97824 0.994568 1.63772 1.13562 1.38665 1.38669C1.13557 1.63776 0.994524 1.97829 0.994524 2.33336C0.994524 2.68843 1.13557 3.02895 1.38665 3.28002L7.11998 9.00002L1.38665 14.72C1.26168 14.844 1.16248 14.9914 1.09479 15.1539C1.0271 15.3164 0.992249 15.4907 0.992249 15.6667C0.992249 15.8427 1.0271 16.017 1.09479 16.1795C1.16248 16.3419 1.26168 16.4894 1.38665 16.6134C1.5106 16.7383 1.65806 16.8375 1.82054 16.9052C1.98302 16.9729 2.1573 17.0078 2.33331 17.0078C2.50933 17.0078 2.6836 16.9729 2.84608 16.9052C3.00856 16.8375 3.15603 16.7383 3.27998 16.6134L8.99998 10.88L14.72 16.6134C14.8439 16.7383 14.9914 16.8375 15.1539 16.9052C15.3164 16.9729 15.4906 17.0078 15.6666 17.0078C15.8427 17.0078 16.0169 16.9729 16.1794 16.9052C16.3419 16.8375 16.4894 16.7383 16.6133 16.6134C16.7383 16.4894 16.8375 16.3419 16.9052 16.1795C16.9729 16.017 17.0077 15.8427 17.0077 15.6667C17.0077 15.4907 16.9729 15.3164 16.9052 15.1539C16.8375 14.9914 16.7383 14.844 16.6133 14.72L10.88 9.00002Z" fill="#5DBBE8"/>
</svg>
